X: 1
P: Circle Cs\'ard\'as
R: csardas
O: Hungary
B:
D:
Z: John Chambers <jc@trillian.mit.edu> http://trillian.mit.edu/~jc/music/
M: 4/4
L: 1/8
K: Dm
((3A/=B/^c/ \
|| "Dm"d2)A2 "Gm"A2G2 | "Dm"FFAG "A7"FE3 | "Dm"D2"A7"{E}D^C "Dm"D2z2 ||
|| "F"f2a2 "C7"a2eg | "Dm"f3d "F"dc3 | "Gm"d4 "A7"A4 ||
|| "F"f2a2 "C7"a2eg | "Dm"f3d "F"dc3 | "Bb"d4 "A7"AA=B^c ||
|| "Dm"d2A2 "Gm"A2G2 | "Dm"FFAG "A7"FE3 | "Dm"D2"A7"{E}D^C "Dm"D2z2 |]
